!!!COM: Bach, Johann Sebastian
!!!CDT: 1685/3//-1750/7/28/
!!!OTL@@DE: Valet will ich dir geben
!!!AGN: 4-Part Chorale
!!!SCT: BH 024
!!!SCT: BWV 415
**harm	**root	**kern	**kern	**kern	**kern
!	!	!bass	!tenor	!alto	!soprno
*	*Iorgan	*Iorgan	*Iorgan	*Iorgan	*Iorgan
*M4/4	*M4/4	*M4/4	*M4/4	*M4/4	*M4/4
*met(c)	*met(c)	*met(c)	*met(c)	*met(c)	*met(c)
*MM60	*MM60	*MM60	*MM60	*MM60	*MM60
*k[f#c#]	*k[f#c#]	*k[f#c#]	*k[f#c#]	*k[f#c#]	*k[f#c#]
*D:	*D:	*D:	*D:	*D:	*D:
*>[A,A,B]	*>[A,A,B]	*>[A,A,B]	*>[A,A,B]	*>[A,A,B]	*>[A,A,B]
*>A	*>A	*>A	*>A	*>A	*>A
I	4DD	8D	8F#	4A	4d
.	.	8C#	8E	.	.
=1	=1	=1	=1	=1	=1
I	4DD	8D	8F#	4d	4a
.	.	8E	8G	.	.
Ib	4DD	8F#	8A	4d	4a
.	.	8D	8F#	.	.
IV	4GG	8G	4G	4d	4b
.	.	8F#	.	.	.
viiob	4CC#	4E	8G	[4g	4cc#
.	.	.	8A	.	.
=2	=2	=2	=2	=2	=2
IVb	4GG	8BB	4B	4g]	2dd
.	.	8C#	.	.	.
I	4DD	4D	8A	8f#	.
.	.	.	8G	8e	.
I;	4DD;	4DD;	4A;	4f#;	4dd;
I	4DD	4d	4a	8a	4ff#
.	.	.	.	8b	.
=3	=3	=3	=3	=3	=3
viioD7/vi	4AA#	4A#	4g	4cc#	4ee
vi7	4BB	8B	4f#	4b	4dd
.	.	8An	.	.	.
viioD7/V	4GG#	4G#	4fn	4b	4dd
V	4AA	4A	4e	4a	4cc#
=4	=4	=4	=4	=4	=4
I;	2.DD;	2.D;	2.f#y;	2.a;	2.dd;
=:|!	=:|!	=:|!	=:|!	=:|!	=:|!
*>B	*>B	*>B	*>B	*>B	*>B
I	4DD	4D	8f#	4a	8dd
.	.	.	8g	.	8ee
=5	=5	=5	=5	=5	=5
I	4DD	8d	4a	4dd	4ff#
.	.	8c#	.	.	.
vi	4BB	8B	4d	8dd	4ff#
.	.	8A	.	8cc#	.
Vb/V	8EE	8G#	8e	8b	4.ee
V7/V	8EE	8E	8d	8g#	.
iii	8FF#	8F#	8c#	8a	.
viio/V	8GG#	8G#	8B	8b	8dd
!!linebreak: 2
=6	=6	=6	=6	=6	=6
V	8AA	8A	4A	8e	8cc#
v7/vii	8GG#	8G#	.	8f#	8b
Vb/iii	4CC#	8F#	4G#	4g#	4cc#
.	.	8E#	.	.	.
iii;	4FF#;	4F#;	4c#;	4f#;	4a;
iii7	4FF#	4F#	8f#	[4a	4cc#
.	.	.	8e	.	.
=7	=7	=7	=7	=7	=7
vii/V	4GG#	8B	4d	8a]	4dd
.	.	8BB	.	8g#	.
Vb	4AA	8C#	4e	[4a	4cc#
.	.	8D	.	.	.
II	8EE	8E	8e	4a]	4b
vi7b	8BB	8D	8f#	.	.
II7	4EE	8E	8e	4g#	4b
.	.	8EE	8d	.	.
=8	=8	=8	=8	=8	=8
V;	2.AA;	2.AA;	2.c#;	2.e;	2.a;
Vb	4AA	4C#	4A	4e	4a
=9	=9	=9	=9	=9	=9
I	4DD	8D	4A	4d	8f#
.	.	8E	.	.	8g
I7	4DD	8F#	8d	4d	4a
.	.	8D	8cn	.	.
IV	8GG	4G	8B	8d	4b
viio7c	8CC#	.	8c#	8e	.
I7b	4DD	8F#	8d	4f#	4a
.	.	8E	8cn	.	.
=10	=10	=10	=10	=10	=10
V7b/ii	4BB	4D#	2B	4f#	4a
ii	4EE	4E	.	4e	8g
.	.	.	.	.	8f#
VI;	4BB;	4BB;	4B;	4d#;	4f#;
V7b/IV	4DD	4FF#	4cn	4dn	4a
=11	=11	=11	=11	=11	=11
IV	4GG	8GG	4B	4d	4g
.	.	8AA	.	.	.
vi7	4BB	8BB	4B	[4d	4f#
.	.	8AA	.	.	.
ii7	4EE	8GG	4B	4d]	4e
.	.	8EE	.	.	.
V	4AA	4AA	8A	4c#	4e
.	.	.	8G	.	.
=12	=12	=12	=12	=12	=12
I;	2.DD;	2.DD;	2.F#;	2.A;	2.d;
==	==	==	==	==	==
*-	*-	*-	*-	*-	*-
!!chor2scor: -l 2 -s 0.6 -o %b.pmx
!!!YEC: Copyright 1994, David Huron
!!!YEC: Changes/Additions 2001 by Craig Stuart Sapp
!!!YEN: United States of America
!!!SMA: 371 Bach Chorales, edited by Ludwig Erk, C.F. Peters
!!!PDT: 1850, 1865
!!!ONB: Harmony and Root analysis done manually
